client/app/assets/icons/main_icon.svg

<?xml version="1.0" encoding="UTF-8" standalone="no"?>
<svg width="68px" height="52px" viewBox="0 0 68 52" version="1.1" xmlns="http://www.w3.org/2000/svg" xmlns:xlink="http://www.w3.org/1999/xlink" xmlns:sketch="http://www.bohemiancoding.com/sketch/ns">
    <!-- Generator: Sketch 3.3.1 (12002) - http://www.bohemiancoding.com/sketch -->
    <title>google-leave</title>
    <desc>Created with Sketch.</desc>
    <defs/>
    <g id="Page-1" stroke="none" stroke-width="1" fill="none" fill-rule="evenodd" sketch:type="MSPage">
        <g id="Rectangle-1-+-path8122-+-Path-4-+-Path-5-Copy-2" sketch:type="MSLayerGroup" fill="#000000">
            <path d="M61.1715729,28 L34,28 C32.8954305,28 32,27.1045695 32,26 C32,24.8954305 32.8954305,24 34,24 L61.1715729,24 L50.5857864,13.4142136 C49.8047379,12.633165 49.8047379,11.366835 50.5857864,10.5857864 C51.366835,9.80473785 52.633165,9.80473785 53.4142136,10.5857864 L67.4142136,24.5857864 C68.1952621,25.366835 68.1952621,26.633165 67.4142136,27.4142136 L53.4142136,41.4142136 C52.633165,42.1952621 51.366835,42.1952621 50.5857864,41.4142136 C49.8047379,40.633165 49.8047379,39.366835 50.5857864,38.5857864 L61.1715729,28 Z M42,22 L42,11 L31,0 L4.0050741,0 C1.80068426,0 0,1.78817888 0,3.99400932 L0,48.0059907 C0,50.2100423 1.79449249,52 4.00811116,52 L37.9918888,52 C40.2087482,52 42,50.2064959 42,47.9940966 L42,30 L37.9984646,30 C37.9972671,38.9401095 37.9952296,48 37.9918888,48 C37.9918888,48 4,47.998632 4,48.0059907 C4,48.0059907 4.00358074,4 4.0050741,4 L29.2999878,4 L38,12.7000122 C38,12.7000122 37.9998283,16.6964777 37.9993492,21.9999999 L42,22 Z M22.2063941,11.0000006 C21.8476144,10.9998685 21.0057431,11.0199006 20.0020022,11.1995872 C17.6295827,11.6242925 14.3497282,13.1742916 13.4216578,16.4027618 C11.9863334,21.3958132 15.6823321,23.3790076 15.6823321,23.3790076 C15.6823321,23.3790076 16.9769236,24.1317997 17.5115084,24.2794678 C19.1181367,24.7232695 20.8274766,24.5161867 20.8274766,24.5161867 C20.8274766,24.5161867 20.1459154,26.7493785 21.5122452,28.3268971 C21.8384547,28.7035278 21.6013589,28.7167871 21.6013589,28.7167871 C21.6013589,28.7167871 15.6297059,28.5642027 12.802552,31.5342063 C9.97539819,34.50421 11.508058,37.2386681 11.508058,37.2386681 C11.508058,37.2386681 12.9894169,40.8130161 19.3828964,40.9936799 C25.8047857,41.1751474 29.7765484,37.4110024 30.1234443,34.5697783 C30.2978085,33.1416611 30.1006326,31.8037933 29.3777032,30.6337461 C28.6745731,29.4957442 27.4663622,28.5160747 26.2868643,27.5610418 C25.5539751,26.9676233 25.0441981,26.662961 24.7156488,26.3217486 C24.4052614,25.999398 24.3528978,25.5842327 24.3638841,25.2727589 C24.3792274,24.8377739 24.6108195,24.3043271 25.3816565,23.4207815 C26.7879137,21.808908 27.1444391,22.0095595 27.9940955,20.8029488 C28.2488174,20.441214 28.436188,19.9134768 28.6976248,19.1273501 C28.8551283,18.6537445 28.8289398,18.1635391 28.8289503,17.7070366 C28.8289743,16.7200625 28.5894726,15.7798231 28.1910837,14.9870899 C27.4507277,13.5138939 26.1798768,12.5575569 26.1555388,12.4852958 L28.3833817,12.4852958 L30.9067069,11.0232084 L22.394002,11.0000006 C22.394002,11.0000006 22.3259874,11.0000452 22.2063941,11.0000006 Z M20.3772179,12.3692571 C21.6756861,12.3780798 23.6264623,13.0437727 24.7953821,16.514159 C26.8012819,22.469447 22.6003706,23.3790076 22.6003706,23.3790076 C22.6003706,23.3790076 17.7866525,24.1125889 16.9017829,18.8163665 C16.0003904,13.4212501 18.1956571,13.129403 19.0545827,12.596693 C19.0545827,12.596693 19.5981366,12.3639606 20.3772179,12.3692571 Z M23.0365587,29.9143063 C23.0365587,29.9143063 26.8691629,32.2391126 27.2295936,33.9431694 C27.6334172,35.8523797 27.6605963,37.242919 24.7344095,38.7657372 C23.8705836,39.2152811 22.3544392,39.2676362 21.3996805,39.2716658 C19.0529843,39.2815728 17.2805286,38.3876449 16.4046222,37.9395417 C15.9494181,37.7066638 13.4211806,34.8970215 15.2930459,32.3836095 C15.7638965,31.7513847 16.2856458,31.4710947 16.7704575,31.1489579 C17.8022074,30.4634065 18.8149745,30.1440725 20.7242923,29.979288 C21.3593418,29.9244791 22.2055822,29.9706287 23.0365587,29.9143063 Z" id="google-leave" sketch:type="MSShapeGroup"/>
        </g>
    </g>
</svg>

<?xml version="1.0" encoding="UTF-8" standalone="no"?>
<svg
   xmlns:sketch="http://www.bohemiancoding.com/sketch/ns"
   xmlns:dc="http://purl.org/dc/elements/1.1/"
   xmlns:cc="http://creativecommons.org/ns#"
   xmlns:rdf="http://www.w3.org/1999/02/22-rdf-syntax-ns#"
   xmlns:svg="http://www.w3.org/2000/svg"
   xmlns="http://www.w3.org/2000/svg"
   xmlns:sodipodi="http://sodipodi.sourceforge.net/DTD/sodipodi-0.dtd"
   xmlns:inkscape="http://www.inkscape.org/namespaces/inkscape"
   width="100"
   height="100"
   viewBox="0 0 100 100"
   version="1.1"
   id="svg2994"
   inkscape:version="0.48.4 r9939"
   sodipodi:docname="leave-google.svg">
  <metadata
     id="metadata3007">
    <rdf:RDF>
      <cc:Work
         rdf:about="">
        <dc:format>image/svg+xml</dc:format>
        <dc:type
           rdf:resource="http://purl.org/dc/dcmitype/StillImage" />
      </cc:Work>
    </rdf:RDF>
  </metadata>
  <sodipodi:namedview
     pagecolor="#ffffff"
     bordercolor="#666666"
     borderopacity="1"
     objecttolerance="10"
     gridtolerance="10"
     guidetolerance="10"
     inkscape:pageopacity="0"
     inkscape:pageshadow="2"
     inkscape:window-width="962"
     inkscape:window-height="1060"
     id="namedview3005"
     showgrid="false"
     inkscape:zoom="4.5384615"
     inkscape:cx="34"
     inkscape:cy="26"
     inkscape:window-x="0"
     inkscape:window-y="24"
     inkscape:window-maximized="0"
     inkscape:current-layer="svg2994" />
  <!-- Generator: Sketch 3.3.1 (12002) - http://www.bohemiancoding.com/sketch -->
  <title
     id="title2996">google-leave</title>
  <desc
     id="desc2998">Created with Sketch.</desc>
  <defs
     id="defs3000" />
  <g
     id="Page-1"
     sketch:type="MSPage"
     style="fill:none;stroke:none"
     transform="matrix(0.77318046,0,0,0.80508474,23.576272,27.932204)">
    <g
       id="Rectangle-1-+-path8122-+-Path-4-+-Path-5-Copy-2"
       sketch:type="MSLayerGroup"
       style="fill:#000000">
      <path
         d="M 61.171573,28 34,28 c -1.104569,0 -2,-0.895431 -2,-2 0,-1.10457 0.895431,-2 2,-2 L 61.171573,24 50.585786,13.414214 c -0.781048,-0.781049 -0.781048,-2.047379 0,-2.828428 0.781049,-0.7810481 2.047379,-0.7810481 2.828428,0 l 14,14 c 0.781048,0.781049 0.781048,2.047379 0,2.828428 l -14,14 c -0.781049,0.781048 -2.047379,0.781048 -2.828428,0 -0.781048,-0.781049 -0.781048,-2.047379 0,-2.828428 L 61.171573,28 z M 42,22 42,11 31,0 4.0050741,0 C 1.8006843,0 0,1.7881789 0,3.9940093 L 0,48.005991 C 0,50.210042 1.7944925,52 4.0081112,52 L 37.991889,52 C 40.208748,52 42,50.206496 42,47.994097 L 42,30 37.998465,30 c -0.0012,8.940109 -0.0032,18 -0.0066,18 C 37.991889,48 4,47.998632 4,48.005991 4,48.005991 4.0035807,4 4.0050741,4 L 29.299988,4 38,12.700012 c 0,0 -1.72e-4,3.996466 -6.51e-4,9.299988 L 42,22 z M 22.206394,11.000001 c -0.35878,-1.32e-4 -1.200651,0.0199 -2.204392,0.199586 -2.372419,0.424705 -5.652274,1.974705 -6.580344,5.203175 -1.435325,4.993051 2.260674,6.976246 2.260674,6.976246 0,0 1.294592,0.752792 1.829176,0.90046 1.606629,0.443801 3.315969,0.236719 3.315969,0.236719 0,0 -0.681562,2.233191 0.684768,3.81071 0.32621,0.376631 0.08911,0.38989 0.08911,0.38989 0,0 -5.971653,-0.152584 -8.798807,2.817419 -2.8271538,2.970004 -1.294494,5.704462 -1.294494,5.704462 0,0 1.481359,3.574348 7.874838,3.755012 6.42189,0.181467 10.393652,-3.582678 10.740548,-6.423902 0.174364,-1.428117 -0.02281,-2.765985 -0.745741,-3.936032 -0.70313,-1.138002 -1.911341,-2.117671 -3.090839,-3.072704 -0.732889,-0.593419 -1.242666,-0.898081 -1.571215,-1.239293 -0.310388,-0.322351 -0.362751,-0.737516 -0.351765,-1.04899 0.01534,-0.434985 0.246936,-0.968432 1.017772,-1.851978 1.406258,-1.611873 1.762783,-1.411221 2.612439,-2.617832 0.254722,-0.361735 0.442093,-0.889472 0.70353,-1.675599 0.157503,-0.473606 0.131315,-0.963811 0.131325,-1.420313 2.4e-5,-0.986975 -0.239477,-1.927214 -0.637866,-2.719947 -0.740356,-1.473196 -2.011207,-2.429533 -2.035545,-2.501794 l 2.227843,0 2.523325,-1.462088 -8.512705,-0.02321 c 0,0 -0.06801,4.4e-5 -0.187608,0 z m -1.829176,1.369256 c 1.298468,0.0088 3.249244,0.674516 4.418164,4.144902 2.0059,5.955288 -2.195011,6.864849 -2.195011,6.864849 0,0 -4.813719,0.733581 -5.698588,-4.562642 -0.901393,-5.395116 1.293874,-5.686963 2.1528,-6.219673 0,0 0.543554,-0.232732 1.322635,-0.227436 z m 2.659341,17.545049 c 0,0 3.832604,2.324807 4.193035,4.028863 0.403823,1.909211 0.431002,3.29975 -2.495184,4.822568 -0.863826,0.449544 -2.379971,0.501899 -3.33473,0.505929 -2.346696,0.0099 -4.119151,-0.884021 -4.995058,-1.332124 -0.455204,-0.232878 -2.983441,-3.042521 -1.111576,-5.555933 0.470851,-0.632224 0.9926,-0.912514 1.477411,-1.234651 1.03175,-0.685551 2.044518,-1.004886 3.953835,-1.16967 0.63505,-0.05481 1.48129,-0.0087 2.312267,-0.06498 z"
         id="google-leave"
         sketch:type="MSShapeGroup"
         inkscape:connector-curvature="0" />
    </g>
  </g>
</svg>
